**kern
*staff1
!!pagebreak:original
*I"P1
=1-
*clefG2
*k[b-]
*M3/4
8a\L
8ff\J
2dd\
=2
8a\L
8ff\J
2dd\
=3
4a/
4.b-\
8cc\
=4
4cc#\
8dd\
8r
4dd\
=5
8dd\L
8ff\J
2ee\
=6
8b-\L
8dd\J
2cc\
=7
4e/
4.ccn\
8b-\
=8
4b-\
8a/
8r
4a/
*-
